!! 00047] TT[KA
!! NN
!!!OTL: Gan ma diao    (Zou ma diao)
!!!ARE: Asia, China,Yunnan, Binchuan
!! Ethnic Group: Han
!! II, 68
!!!SCT: C0210
!!!YEM: Copyright 1995, estate of Helmut Schaffrath.
**kern
*ICvox
*Ivox
*M2/4
*k[]
*C:
{8cc
16a
16a
8a
16cc
16a
=1
4aa
16aa
16gg
16ee
16dd
=2
2cc}
=3
{8.cc
16ee
8dd
8cc
=4
8.gg
16cc
8cc
16ee
16dd
=5
2a}
=6
{8dd
8cc
16ee
16dd
16cc
16dd
=7
8dd
8gg
8ee
8dd}
=8
{16.ee
32dd
16cc
16dd
8cc
16a
16g
=9
2a}
=10
{8a
16a
16g
8a
16a
16cc
=11
8a
16r
16cc
16dd
16cc
8dd}
=12
{8.dd
16ee
16gg
16ee
8gg
=13
16aa
16gg
8ee
16dd
16cc
8dd}
=14
{8dd
16dd
16ee
8cc
16cc
16dd
=15
4a
8dd
8cc
=16
8dd
8gg
8ee
8dd}
=17
{16.ee
32dd
16cc
16dd
8cc
16a
16g
=18
2a}
==
!!!AGN: Shange, Qingge
!! kleinere Variante zur 2. Strophe notiert; Verzierungen
!!    Sonderzeichen: v.d. Sprache abgeleitetes Verlassen der Tonhoehe
!!    von zu Pferd reisenden Kaufleuten gesungen
!!    Vor- und Zwischenspiel weggelassen.
!!    Pinyin-Text der ersten Strophe vorhanden!
!!!ONB: ESAC (Essen Associative Code) Database: CHINA_093
!!!AMT: simple duple
!!!AIN: vox
!!!EED: Helmut Schaffrath
!!!EEV: 1.0
*-
